X:664
T:Billy Thom's Reel #2
C:Joe Buchanan's Scottish Tome - Page 204.2
I:204 2
Z:Carl Allison
C:Jim Johnston
R:Reel
L:1/8
M:4/4
K:A
cB | "A"A2 af "E"efec | "A"Acef "C#"ecBA | "B7"G2 "E7"eG "E7"BeGB | "B7"e2 "E7"^de "G#"d"E7"BGB |
"A"A2 af "E"efec | "A"Acef "C#"ecBA | "B7"G2 =G^G "G#"E"E7"GBd | "E7"cBA"A"G "E7"A2 :|
cB | "A"AaaA "E"gAfA | "A"eAcA "E7"BAGA | "E7"BEEB "B7"E2 BE | "G#"E"E7"edc "E7"BAGB |
"A"AaaA "E"gAfA | "A"eAcA "E7"BAGA | "G#"B"E7"EEe "B"dcBA | "E7"GABG "A"A2 :|
W:Errata: Chords mostly illegible in scan. Added "A" and "E7" chords to second measure of last two lines.
